X: 1
T:Th' Skeul Bord Man
M:4/4
L:1/8
C:Tommy Armstrong
K:D
|A2|FF A2 F2 E2|D6 A2|d3 d d2 c2|B8|
d2 dd d2d2| c2 BB B2 BB} A2 AA G2 FF|E6 A2|
F2A2F2E2|D6 AA|d2d2d2 cc|B6 A2|d2d2d2 AA|
cc BB B2 FF| A2 AA G2 EE|D6|| F2 A2 G2 E2|
D8|d2 d d2 c2|B6 A2|d2d2d2 AA|c2B2B2 GG|
AA AA G2 E2|D8||One Good Source:Polisses &amp; Candymen, The Complete Works of Tommy
